X:1
T:Captain Bill Howarth's March
M:C|
L:1/8
Q:80
C:Composed by Dave Rickard
S:March
K:HP
[| {g}A2{Gdc}d3/2c/2 | \
{gBd}B2-BG | \
{g}A3/2B/2{g}dg |
{afg}f2-fd{ag}a2g3/4f/2{g}e3/4d/4 | \
{g}f2B3/4c/4{g}d3/4f/4 | \
{gef}e3/2c/2{g}de |
{gcd}c2-c2{g}A2{Gdc}d3/2c/2 | \
{gBd}B2-BB | \
{g}A3/2B/2{g}dc |
{gef}e2-eA{g}B3/4c/4{g}d3/4B/4{gcd}ce | \
{ag}a2{g}a3/2g/2 | \
{ef}e3/2c/2{g}de |
{Gdc}d2-d2|]  |: \
c | \
{gBd}B3/2A/2{g}Bd | \
{gcd}cf{gef}e3/2A/2 |
{g}dag3/4f/4{g}e3/4f/4 | \
{g}Ad{gdc}d3/2c/2{gBd}B2{gcd}ce | \
{g}d3/4e/4{g}f3/4a/4{f}g3/2f/2 |
{gef}e3/2B/2{g}dc | \
{Gdc}d2-d :|
